!!!SOCIAL_FUNCTION:	initiation songs of the sixth degree
!!!PDT:	1909
!!!OTL: No_17_Second_Song.krn
!!!REG: Great_Lakes
!!!LANG: Non-Tone
!!!LING_GROUP: Algonquin
**kern	**kern
*staff2	*staff1
*clefF4	*clefF4
*k[b-]	*k[b-]
*M3/4	*M3/4
4r	8c\L
.	8c\J
=1	=1
8GG/L	4c\
8GG/J	.
8GG/L	4B-\
8GG/J	.
8GG/L	4A\
8GG/J	.
=2	=2
2.r	2A\
.	4A\
=3	=3
2.r	4A\
.	4A\
.	4A\
=4!|:	=4!|:
2.r	2A\
.	4A\
=5	=5
2.r	4A\
.	4F\
.	4F\
=6	=6
2.r	4.F\
.	8F\
.	[4F\
=7	=7
2.r	4F\]
.	4A\
.	4A\
=8	=8
2.r	4A\
.	4F\
.	4F\
=9	=9
2.r	2F\
.	4F\
=10	=10
2.r	4F\
.	4F\
.	4D\
=11	=11
2.r	2F\
.	4F\
=12	=12
2.r	4F\
.	4D\
.	4D\
=13	=13
2.r	4.D\
.	8D\
.	[4D\
=14	=14
2.r	4D\]
.	4D\
.	4D\
=15	=15
2.r	4D\
.	4F\
.	4F\
=16	=16
2.r	2F\
.	4F\
=17	=17
2.r	4F\
.	4F\
.	4F\
=18	=18
2.r	2F\
.	4F\
=19	=19
2.r	4F\
.	4F\
.	4F\
=20	=20
2.r	2F\
.	8c\L
.	8c\J
=21	=21
2.r	8c\L
.	8A\J
.	4A\
.	4A\
=22	=22
2.r	2A\
.	4A\
=23	=23
2.r	4A\
.	4A\
.	4A\
==:|!	==:|!
*-	*-
